**harm	**harte	**timestamp	**phrase	**leadinstrument	**kern
*M4/4	*M4/4	*	*	*	*
*A:	*A:	*	*	*	*A:
1r;	N	0	.	r	1r;
=1	=1	=1	=1	=1	=1
*>A_intro	*>A_intro	*>A_intro	*>A_intro	*>A_intro	*>A_intro
2I	A:maj	0.302	newline	guitar	2A 2cc# 2ee
4Vf	E:maj/4	1.218	.	guitar	4E 4g# 4b
4I	A:maj	1.675	.	guitar	4A 4cc# 4ee
=2	=2	=2	=2	=2	=2
1IVc	D:maj/5	2.133	.	guitar	1d 1f# 1A
=3	=3	=3	=3	=3	=3
2I	A:maj	3.965	.	guitar	2A 2cc# 2ee
4Vf	E:maj/4	4.881	.	guitar	4E 4g# 4b
4I	A:maj	5.338	.	guitar	4A 4cc# 4ee
=4	=4	=4	=4	=4	=4
1IVc	D:maj/5	5.796	.	guitar	1d 1f# 1A
=5	=5	=5	=5	=5	=5
2I	A:maj	7.628	newline	guitar	2A 2cc# 2ee
4Vf	E:maj/4	8.525	.	guitar	4E 4g# 4b
4I	A:maj	8.974	.	guitar	4A 4cc# 4ee
=6	=6	=6	=6	=6	=6
1IVc	D:maj/5	9.423	.	guitar	1d 1f# 1A
=7	=7	=7	=7	=7	=7
2I	A:maj	11.218	.	guitar	2A 2cc# 2ee
4Vf	E:maj/4	12.115	.	guitar	4E 4g# 4b
4I	A:maj	12.564	.	guitar	4A 4cc# 4ee
=8	=8	=8	=8	=8	=8
1IVc	D:maj/5	13.013	.	guitar	1d 1f# 1A
=9	=9	=9	=9	=9	=9
*>B_verse	*>B_verse	*>B_verse	*>B_verse	*>B_verse	*>B_verse
1I	A:maj	14.808	newline	voice	1A 1cc# 1ee
=10	=10	=10	=10	=10	=10
1ivc	D:min/5	16.676	.	voice	1d 1f 1A
=11	=11	=11	=11	=11	=11
1I	A:maj	18.545	.	voice	1A 1cc# 1ee
=12	=12	=12	=12	=12	=12
1ivc	D:min/5	20.413	.	voice	1d 1f 1A
=13	=13	=13	=13	=13	=13
1I	A:maj	22.281	newline	voice	1A 1cc# 1ee
=14	=14	=14	=14	=14	=14
1ivc	D:min/5	24.116	.	voice	1d 1f 1A
=15	=15	=15	=15	=15	=15
1I	A:maj	25.951	.	voice	1A 1cc# 1ee
1r;	N	27.786	.	r	1r;
=16	=16	=16	=16	=16	=16
1I	A:maj	29.621	newline	r	1A 1cc# 1ee
=17	=17	=17	=17	=17	=17
1ivc	D:min/5	31.47	.	r	1d 1f 1A
=18	=18	=18	=18	=18	=18
1I	A:maj	33.319	.	r	1A 1cc# 1ee
=19	=19	=19	=19	=19	=19
1ivc	D:min/5	35.168	.	r	1d 1f 1A
=20	=20	=20	=20	=20	=20
1I	A:maj	37.017	newline	r	1A 1cc# 1ee
=21	=21	=21	=21	=21	=21
1ivc	D:min/5	38.828	.	r	1d 1f 1A
=22	=22	=22	=22	=22	=22
1ii7	B:min7	40.639	.	r	1B 1dd 1ff# 1aa
=23	=23	=23	=23	=23	=23
1V	E:maj	42.45	.	r	1E 1g# 1b
=24	=24	=24	=24	=24	=24
*>C_chorus	*>C_chorus	*>C_chorus	*>C_chorus	*>C_chorus	*>C_chorus
2I	A:maj	44.262	newline	r	2A 2cc# 2ee
4Vf	E:maj/4	45.18	.	r	4E 4g# 4b
4I	A:maj	45.64	.	r	4A 4cc# 4ee
=25	=25	=25	=25	=25	=25
1IVc	D:maj/5	46.099	.	r	1d 1f# 1A
=26	=26	=26	=26	=26	=26
2I	A:maj	47.936	.	r	2A 2cc# 2ee
4Vf	E:maj/4	48.855	.	r	4E 4g# 4b
4I	A:maj	49.315	.	r	4A 4cc# 4ee
=27	=27	=27	=27	=27	=27
1IVc	D:maj/5	49.774	.	r	1d 1f# 1A
=28	=28	=28	=28	=28	=28
1iii7	C#:min7	51.611	newline	r	1C# 1e 1g# 1b
=29	=29	=29	=29	=29	=29
1vi7	F#:min7	53.46	.	r	1F# 1a 1cc# 1ee
=30	=30	=30	=30	=30	=30
1ii7	B:min7	55.309	.	r	1B 1dd 1ff# 1aa
=31	=31	=31	=31	=31	=31
1V	E:maj	57.158	.	r	1E 1g# 1b
=32	=32	=32	=32	=32	=32
1iii7	C#:min7	59.007	newline	r	1C# 1e 1g# 1b
=33	=33	=33	=33	=33	=33
1vi7	F#:min7	60.826	.	r	1F# 1a 1cc# 1ee
=34	=34	=34	=34	=34	=34
1ii7	B:min7	62.646	.	r	1B 1dd 1ff# 1aa
=35	=35	=35	=35	=35	=35
2IV	D:maj	64.465	.	r	2D 2f# 2a
2V	E:maj	65.375	.	r	2E 2g# 2b
=36	=36	=36	=36	=36	=36
*>A_trans	*>A_trans	*>A_trans	*>A_trans	*>A_trans	*>A_trans
2I	A:maj	66.284	newline	r	2A 2cc# 2ee
4Vf	E:maj/4	67.193	.	r	4E 4g# 4b
4I	A:maj	67.648	.	r	4A 4cc# 4ee
=37	=37	=37	=37	=37	=37
1IVc	D:maj/5	68.102	.	r	1d 1f# 1A
=38	=38	=38	=38	=38	=38
2I	A:maj	69.92	.	r	2A 2cc# 2ee
4Vf	E:maj/4	70.829	.	r	4E 4g# 4b
4I	A:maj	71.284	.	r	4A 4cc# 4ee
=39	=39	=39	=39	=39	=39
1IVc	D:maj/5	71.738	.	r	1d 1f# 1A
=40	=40	=40	=40	=40	=40
*>B_verse	*>B_verse	*>B_verse	*>B_verse	*>B_verse	*>B_verse
1I	A:maj	73.557	newline	r	1A 1cc# 1ee
=41	=41	=41	=41	=41	=41
1ivc	D:min/5	75.409	.	r	1d 1f 1A
=42	=42	=42	=42	=42	=42
1I	A:maj	77.262	.	r	1A 1cc# 1ee
=43	=43	=43	=43	=43	=43
1ivc	D:min6/5	79.115	.	r	1d 1f 1A
=44	=44	=44	=44	=44	=44
1I	A:maj	80.968	newline	r	1A 1cc# 1ee
1r;	N	82.799	.	r	1r;
=45	=45	=45	=45	=45	=45
1I	A:maj	84.629	newline	r	1A 1cc# 1ee
=46	=46	=46	=46	=46	=46
1ivc	D:min/5	86.481	.	r	1d 1f 1A
=47	=47	=47	=47	=47	=47
1I	A:maj	88.333	.	r	1A 1cc# 1ee
=48	=48	=48	=48	=48	=48
1ivc	D:min/5	90.184	.	r	1d 1f 1A
=49	=49	=49	=49	=49	=49
1I	A:maj	92.036	newline	r	1A 1cc# 1ee
=50	=50	=50	=50	=50	=50
1ivc	D:min/5	93.855	.	r	1d 1f 1A
=51	=51	=51	=51	=51	=51
1ii7	B:min7	95.674	.	r	1B 1dd 1ff# 1aa
=52	=52	=52	=52	=52	=52
1V	E:maj	97.493	.	r	1E 1g# 1b
=53	=53	=53	=53	=53	=53
*>C_chorus	*>C_chorus	*>C_chorus	*>C_chorus	*>C_chorus	*>C_chorus
2I	A:maj	99.312	newline	r	2A 2cc# 2ee
4Vf	E:maj/4	100.217	.	r	4E 4g# 4b
4I	A:maj	100.67	.	r	4A 4cc# 4ee
=54	=54	=54	=54	=54	=54
1IVc	D:maj/5	101.122	.	r	1d 1f# 1A
=55	=55	=55	=55	=55	=55
2I	A:maj	102.932	.	r	2A 2cc# 2ee
4Vf	E:maj/4	103.837	.	r	4E 4g# 4b
4I	A:maj	104.29	.	r	4A 4cc# 4ee
=56	=56	=56	=56	=56	=56
1IVc	D:maj/5	104.743	.	r	1d 1f# 1A
=57	=57	=57	=57	=57	=57
1iii7	C#:min7	106.553	newline	r	1C# 1e 1g# 1b
=58	=58	=58	=58	=58	=58
1vi7	F#:min7	108.384	.	r	1F# 1a 1cc# 1ee
=59	=59	=59	=59	=59	=59
1ii7	B:min7	110.215	.	r	1B 1dd 1ff# 1aa
=60	=60	=60	=60	=60	=60
1V	E:maj	112.046	.	r	1E 1g# 1b
=61	=61	=61	=61	=61	=61
1iii7	C#:min7	113.877	newline	voice	1C# 1e 1g# 1b
=62	=62	=62	=62	=62	=62
1vi7	F#:min7	115.696	.	voice	1F# 1a 1cc# 1ee
=63	=63	=63	=63	=63	=63
1ii7	B:min7	117.515	.	voice	1B 1dd 1ff# 1aa
=64	=64	=64	=64	=64	=64
2IV	D:maj	119.335	.	voice	2D 2f# 2a
2V	E:maj	120.244	.	voice	2E 2g# 2b
=65	=65	=65	=65	=65	=65
*>B_solo	*>B_solo	*>B_solo	*>B_solo	*>B_solo	*>B_solo
1I	A:maj	121.154	newline	guitar	1A 1cc# 1ee
=66	=66	=66	=66	=66	=66
1ivc	D:min/5	122.995	.	guitar	1d 1f 1A
=67	=67	=67	=67	=67	=67
1I	A:maj	124.837	.	guitar	1A 1cc# 1ee
=68	=68	=68	=68	=68	=68
1ivc	D:min/5	126.678	.	guitar	1d 1f 1A
=69	=69	=69	=69	=69	=69
1I	A:maj	128.52	newline	guitar	1A 1cc# 1ee
=70	=70	=70	=70	=70	=70
1ivc	D:min/5	130.33	.	guitar	1d 1f 1A
=71	=71	=71	=71	=71	=71
1I	A:maj	132.139	.	guitar	1A 1cc# 1ee
1r;	N	133.949	.	r	1r;
=72	=72	=72	=72	=72	=72
1I	A:maj	135.758	newline	r	1A 1cc# 1ee
=73	=73	=73	=73	=73	=73
1ivc	D:min/5	137.574	.	r	1d 1f 1A
=74	=74	=74	=74	=74	=74
1I	A:maj	139.389	.	r	1A 1cc# 1ee
=75	=75	=75	=75	=75	=75
1ivc	D:min/5	141.205	.	r	1d 1f 1A
=76	=76	=76	=76	=76	=76
1I	A:maj	143.02	newline	guitar	1A 1cc# 1ee
=77	=77	=77	=77	=77	=77
1ivc	D:min/5	144.816	.	guitar	1d 1f 1A
=78	=78	=78	=78	=78	=78
1ii7	B:min7	146.612	.	guitar	1B 1dd 1ff# 1aa
=79	=79	=79	=79	=79	=79
1V	E:maj	148.407	.	guitar	1E 1g# 1b
=80	=80	=80	=80	=80	=80
*>D_bridge	*>D_bridge	*>D_bridge	*>D_bridge	*>D_bridge	*>D_bridge
1iii7	C#:min7	150.203	newline	voice	1C# 1e 1g# 1b
=81	=81	=81	=81	=81	=81
1IV	D:maj	152.048	.	voice	1D 1f# 1a
=82	=82	=82	=82	=82	=82
1iii7	C#:min7	153.894	.	voice	1C# 1e 1g# 1b
=83	=83	=83	=83	=83	=83
1IV	D:maj	155.739	.	voice	1D 1f# 1a
=84	=84	=84	=84	=84	=84
1iii7	C#:min7	157.584	newline	voice	1C# 1e 1g# 1b
=85	=85	=85	=85	=85	=85
1IV	D:maj	159.407	.	voice	1D 1f# 1a
=86	=86	=86	=86	=86	=86
1ii7	B:min7	161.23	.	voice	1B 1dd 1ff# 1aa
=87	=87	=87	=87	=87	=87
1V	E:maj	163.053	.	voice	1E 1g# 1b
=88	=88	=88	=88	=88	=88
*>C2_chorus	*>C2_chorus	*>C2_chorus	*>C2_chorus	*>C2_chorus	*>C2_chorus
2I	A:maj	164.876	newline	voice	2A 2cc# 2ee
4Vf	E:maj/4	165.788	.	voice	4E 4g# 4b
4I	A:maj	166.244	.	voice	4A 4cc# 4ee
=89	=89	=89	=89	=89	=89
1IVc	D:maj/5	166.699	.	voice	1d 1f# 1A
=90	=90	=90	=90	=90	=90
2I	A:maj	168.523	.	voice	2A 2cc# 2ee
4Vf	E:maj/4	169.435	.	voice	4E 4g# 4b
4I	A:maj	169.89	.	voice	4A 4cc# 4ee
=91	=91	=91	=91	=91	=91
1IVc	D:maj/5	170.346	.	voice	1d 1f# 1A
=92	=92	=92	=92	=92	=92
2I	A:maj	172.17	newline	voice	2A 2cc# 2ee
4Vf	E:maj/4	173.064	.	voice	4E 4g# 4b
4I	A:maj	173.512	.	voice	4A 4cc# 4ee
=93	=93	=93	=93	=93	=93
1IVc	D:maj/5	173.959	.	voice	1d 1f# 1A
=94	=94	=94	=94	=94	=94
2I	A:maj	175.749	.	voice	2A 2cc# 2ee
4Vf	E:maj/4	176.643	.	voice	4E 4g# 4b
4I	A:maj	177.091	.	voice	4A 4cc# 4ee
=95	=95	=95	=95	=95	=95
1IVc	D:maj/5	177.538	.	voice	1d 1f# 1A
=96	=96	=96	=96	=96	=96
*>B2_outro	*>B2_outro	*>B2_outro	*>B2_outro	*>B2_outro	*>B2_outro
2I	A:maj	179.327	newline	guitar	2A 2cc# 2ee
2Ib	A:maj/3	180.229	.	guitar	2a 2C# 2ee
=97	=97	=97	=97	=97	=97
2IV	D:maj	181.131	.	guitar	2D 2f# 2a
2V	E:maj	182.033	.	guitar	2E 2g# 2b
=98	=98	=98	=98	=98	=98
2I	A:maj	182.935	.	guitar	2A 2cc# 2ee
2Ib	A:maj/3	183.837	.	guitar	2a 2C# 2ee
=99	=99	=99	=99	=99	=99
2IV	D:maj	184.739	.	guitar	2D 2f# 2a
2V	E:maj	185.64	.	guitar	2E 2g# 2b
=100	=100	=100	=100	=100	=100
2I	A:maj	186.542	newline	voice	2A 2cc# 2ee
2Ib	A:maj/3	187.447	.	voice	2a 2C# 2ee
=101	=101	=101	=101	=101	=101
2IV	D:maj	188.351	.	voice	2D 2f# 2a
2V	E:maj	189.256	.	voice	2E 2g# 2b
=102	=102	=102	=102	=102	=102
2I	A:maj	190.16	.	voice	2A 2cc# 2ee
2Ib	A:maj/3	191.064	.	voice	2a 2C# 2ee
=103	=103	=103	=103	=103	=103
2IV	D:maj	191.969	.	voice	2D 2f# 2a
2V	E:maj	192.873	.	voice	2E 2g# 2b
=104	=104	=104	=104	=104	=104
2I	A:maj	193.778	newline	voice	2A 2cc# 2ee
2Ib	A:maj/3	194.676	.	voice	2a 2C# 2ee
=105	=105	=105	=105	=105	=105
2IV	D:maj	195.575	.	voice	2D 2f# 2a
2V	E:maj	196.474	.	voice	2E 2g# 2b
=106	=106	=106	=106	=106	=106
2I	A:maj	197.372	.	voice	2A 2cc# 2ee
2Ib	A:maj/3	198.271	.	voice	2a 2C# 2ee
=107	=107	=107	=107	=107	=107
2IV	D:maj	199.17	.	voice	2D 2f# 2a
2V	E:maj	200.068	.	voice	2E 2g# 2b
=108	=108	=108	=108	=108	=108
2I	A:maj	200.967	newline	voice	2A 2cc# 2ee
2Ib	A:maj/3	201.87	.	voice	2a 2C# 2ee
=109	=109	=109	=109	=109	=109
2IV	D:maj	202.773	.	voice	2D 2f# 2a
2V	E:maj	203.677	.	voice	2E 2g# 2b
=110	=110	=110	=110	=110	=110
2I	A:maj	204.58	.	voice	2A 2cc# 2ee
2Ib	A:maj/3	205.483	.	voice	2a 2C# 2ee
=111	=111	=111	=111	=111	=111
2IV	D:maj	206.386	.	voice	2D 2f# 2a
2V	E:maj	207.289	.	voice	2E 2g# 2b
=112	=112	=112	=112	=112	=112
*>_fadeout	*>_fadeout	*>_fadeout	*>_fadeout	*>_fadeout	*>_fadeout
2I	A:maj	208.193	newline	voice	2A 2cc# 2ee
2Ib	A:maj/3	209.077	.	voice	2a 2C# 2ee
=113	=113	=113	=113	=113	=113
2IV	D:maj	209.961	.	voice	2D 2f# 2a
2V	E:maj	210.846	.	voice	2E 2g# 2b
=114	=114	=114	=114	=114	=114
2I	A:maj	211.73	.	voice	2A 2cc# 2ee
2Ib	A:maj/3	212.615	.	voice	2a 2C# 2ee
=115	=115	=115	=115	=115	=115
2IV	D:maj	213.499	.	voice	2D 2f# 2a
2V	E:maj	214.383	.	voice	2E 2g# 2b
=116	=116	=116	=116	=116	=116
2I	A:maj	215.268	newline	voice	2A 2cc# 2ee
2Ib	A:maj/3	216.155	.	voice	2a 2C# 2ee
=117	=117	=117	=117	=117	=117
2IV	D:maj	217.042	.	voice	2D 2f# 2a
2V	E:maj	217.928	.	voice	2E 2g# 2b
=118	=118	=118	=118	=118	=118
2I	A:maj	218.815	.	voice	2A 2cc# 2ee
2Ib	A:maj/3	219.702	.	voice	2a 2C# 2ee
=119	=119	=119	=119	=119	=119
2IV	D:maj	220.589	.	voice	2D 2f# 2a
2V	E:maj	221.476	.	voice	2E 2g# 2b
=120	=120	=120	=120	=120	=120
2I	A:maj	222.363	newline	voice	2A 2cc# 2ee
2Ib	A:maj/3	222.652	.	voice	2a 2C# 2ee
=121	=121	=121	=121	=121	=121
2IV	D:maj	222.941	.	voice	2D 2f# 2a
2V	E:maj	223.23	.	voice	2E 2g# 2b
=122	=122	=122	=122	=122	=122
2I	A:maj	223.519	.	voice	2A 2cc# 2ee
2Ib	A:maj/3	223.809	.	voice	2a 2C# 2ee
=123	=123	=123	=123	=123	=123
2IV	D:maj	224.098	.	voice	2D 2f# 2a
2V	E:maj	224.387	.	voice	2E 2g# 2b
1r;	N	224.676	.	r	1r;
1r;	N	227.422	.	r	1r;
*-	*-	*-	*-	*-	*-
!!!OTL: Straight From The Heart
!!!COC: The Allman Brothers Band
!!!BillboardChartDate: 1981/09/19
!!!BillboardPeak: 39
!!!BillboardWeeksOnChart: 11
!!!SampleTargetRank: 39
!!!SampleActualRank: 39
!!!SampleID#: 0798
!!!RDF**harmony: **recip + pitch class of root + harmonic quality
!!!RDF**harte: Chris Harte's syntax, used by MIREX
!!!RDF**phrase: newline = linebreak in original McGill transcription
!!!RDF**timestamp: McGill audio timestamp in seconds
!!!RDF**leadinstrument: original McGill primary instrumentation annotation
!!!RDT: 2017/01/12/
!!!ENC: Nathaniel Condit-Schultz
!!!EST: Awating manual error checking and editing.
